flaticon/constructions/voltmeter-3.svg

<svg xmlns="http://www.w3.org/2000/svg" width="32" height="32" viewBox="0 0 24 24">
    <path d="M13.398438 8.800781C14.078125 8.800781 14.601562 8.28125 14.601562 7.601562L14.601562 3.199219C14.601562 2.519531 14.078125 2 13.398438 2L4.601562 2C3.921875 2 3.398438 2.519531 3.398438 3.199219L3.398438 7.601562C3.398438 8.28125 3.921875 8.800781 4.601562 8.800781zM4.199219 7.601562L4.199219 3.199219C4.199219 3 4.398438 2.800781 4.601562 2.800781L13.398438 2.800781C13.640625 2.800781 13.800781 2.960938 13.800781 3.199219L13.800781 7.601562C13.800781 7.839844 13.640625 8 13.398438 8L4.601562 8C4.359375 8 4.199219 7.839844 4.199219 7.601562zM13.398438 14C13.398438 11.558594 11.441406 9.601562 9 9.601562 7.808594 9.601562 6.734375 10.066406 5.945312 10.828125 5.921875 10.84375 5.898438 10.859375 5.878906 10.878906 5.859375 10.902344 5.84375 10.921875 5.828125 10.945312 5.066406 11.734375 4.601562 12.808594 4.601562 14 4.601562 16.441406 6.601562 18.398438 9 18.398438 11.441406 18.398438 13.398438 16.441406 13.398438 14zM12.601562 14C12.601562 14.855469 12.304688 15.636719 11.8125 16.253906L6.746094 11.1875C7.363281 10.695312 8.144531 10.398438 9 10.398438 11 10.398438 12.601562 12 12.601562 14zM5.398438 14C5.398438 13.144531 5.695312 12.363281 6.1875 11.746094L11.253906 16.8125C10.636719 17.304688 9.855469 17.601562 9 17.601562 7 17.601562 5.398438 16 5.398438 14zM5.398438 14"/>
    <path d="M 21.800781 8.066406 L 21.800781 7.199219 C 21.800781 6.960938 21.640625 6.800781 21.398438 6.800781 C 21.160156 6.800781 21 6.960938 21 7.199219 L 21 8.066406 C 20.527344 8.222656 20.199219 8.660156 20.199219 9.199219 L 20.199219 12 C 20.199219 12.238281 20.359375 12.398438 20.601562 12.398438 L 21 12.398438 L 21 22 C 21 22.679688 20.480469 23.199219 19.800781 23.199219 L 8.601562 23.199219 C 7.921875 23.199219 7.398438 22.679688 7.398438 22 L 7.398438 20.398438 L 10.601562 20.398438 L 10.601562 21.199219 C 10.601562 21.878906 11.121094 22.398438 11.800781 22.398438 L 17.398438 22.398438 C 18.078125 22.398438 18.601562 21.878906 18.601562 21.199219 L 18.601562 12.398438 L 19 12.398438 C 19.238281 12.398438 19.398438 12.238281 19.398438 12 L 19.398438 9.199219 C 19.398438 8.660156 19.074219 8.222656 18.601562 8.066406 L 18.601562 7.199219 C 18.601562 6.960938 18.441406 6.800781 18.199219 6.800781 C 17.960938 6.800781 17.800781 6.960938 17.800781 7.199219 L 17.800781 8.066406 C 17.328125 8.222656 17 8.660156 17 9.199219 L 17 12 C 17 12.238281 17.160156 12.398438 17.398438 12.398438 L 17.800781 12.398438 L 17.800781 21.199219 C 17.800781 21.441406 17.640625 21.601562 17.398438 21.601562 L 11.800781 21.601562 C 11.558594 21.601562 11.398438 21.441406 11.398438 21.199219 L 11.398438 20.398438 L 11.960938 20.398438 C 14.519531 20.398438 16.601562 18.441406 16.601562 16 C 16.601562 15.960938 16.601562 15.960938 16.601562 15.921875 C 15.601562 10.960938 15.558594 9.359375 16.359375 4.441406 L 16.601562 3.28125 C 16.601562 3.238281 16.601562 3.238281 16.601562 3.199219 C 16.601562 1.441406 15.078125 0 13.238281 0 L 4.761719 0 C 2.921875 0 1.398438 1.441406 1.398438 3.199219 C 1.398438 3.238281 1.398438 3.238281 1.398438 3.28125 L 1.640625 4.441406 C 2.441406 9.199219 2.441406 10.71875 1.398438 15.921875 C 1.398438 15.960938 1.398438 15.960938 1.398438 16 C 1.398438 18.441406 3.480469 20.398438 6.039062 20.398438 L 6.601562 20.398438 L 6.601562 22 C 6.601562 23.121094 7.480469 24 8.601562 24 L 19.800781 24 C 20.921875 24 21.800781 23.121094 21.800781 22 L 21.800781 12.398438 L 22.199219 12.398438 C 22.441406 12.398438 22.601562 12.238281 22.601562 12 L 22.601562 9.199219 C 22.601562 8.660156 22.273438 8.222656 21.800781 8.066406 Z M 17.800781 9.199219 C 17.800781 8.960938 17.960938 8.800781 18.199219 8.800781 C 18.441406 8.800781 18.601562 8.960938 18.601562 9.199219 L 18.601562 11.601562 L 17.800781 11.601562 Z M 2.199219 16.039062 C 3.199219 10.761719 3.238281 9.121094 2.398438 4.28125 L 2.199219 3.160156 C 2.238281 1.839844 3.359375 0.800781 4.761719 0.800781 L 13.238281 0.800781 C 14.640625 0.800781 15.800781 1.839844 15.800781 3.160156 L 15.601562 4.28125 C 14.761719 9.320312 14.800781 11 15.800781 16.039062 C 15.761719 18 14.078125 19.601562 11.960938 19.601562 L 6.039062 19.601562 C 3.960938 19.601562 2.238281 18 2.199219 16.039062 Z M 21.800781 11.601562 L 21 11.601562 L 21 9.199219 C 21 8.960938 21.160156 8.800781 21.398438 8.800781 C 21.640625 8.800781 21.800781 8.960938 21.800781 9.199219 Z M 21.800781 11.601562"/>
    <path d="M5.398438 7.199219L7 7.199219C7.238281 7.199219 7.398438 7.039062 7.398438 6.800781 7.398438 6.558594 7.238281 6.398438 7 6.398438L5.800781 6.398438C5.800781 6.160156 5.960938 6 6.199219 6 6.878906 6 7.398438 5.480469 7.398438 4.800781 7.398438 4.121094 6.878906 3.601562 6.199219 3.601562 5.519531 3.601562 5 4.121094 5 4.800781 5 5.039062 5.160156 5.199219 5.398438 5.199219 5.640625 5.199219 5.800781 5.039062 5.800781 4.800781 5.800781 4.558594 5.960938 4.398438 6.199219 4.398438 6.441406 4.398438 6.601562 4.558594 6.601562 4.800781 6.601562 5.039062 6.441406 5.199219 6.199219 5.199219 5.519531 5.199219 5 5.71875 5 6.398438L5 6.800781C5 7.039062 5.160156 7.199219 5.398438 7.199219zM8.199219 7.199219L9.800781 7.199219C10.039062 7.199219 10.199219 7.039062 10.199219 6.800781 10.199219 6.558594 10.039062 6.398438 9.800781 6.398438L8.601562 6.398438C8.601562 6.160156 8.761719 6 9 6 9.679688 6 10.199219 5.480469 10.199219 4.800781 10.199219 4.121094 9.679688 3.601562 9 3.601562 8.320312 3.601562 7.800781 4.121094 7.800781 4.800781 7.800781 5.039062 7.960938 5.199219 8.199219 5.199219 8.441406 5.199219 8.601562 5.039062 8.601562 4.800781 8.601562 4.558594 8.761719 4.398438 9 4.398438 9.238281 4.398438 9.398438 4.558594 9.398438 4.800781 9.398438 5.039062 9.238281 5.199219 9 5.199219 8.320312 5.199219 7.800781 5.71875 7.800781 6.398438L7.800781 6.800781C7.800781 7.039062 7.960938 7.199219 8.199219 7.199219zM11.441406 7.199219L12.121094 7.199219C12.601562 7.199219 13 6.800781 13 6.359375L13 4.480469C13 4 12.601562 3.601562 12.160156 3.601562L11.480469 3.601562C11 3.601562 10.601562 4 10.601562 4.441406L10.601562 6.320312C10.601562 6.800781 11 7.199219 11.441406 7.199219zM11.398438 4.480469C11.398438 4.441406 11.441406 4.398438 11.480469 4.398438L12.160156 4.398438C12.199219 4.398438 12.238281 4.441406 12.238281 4.480469L12.238281 6.359375C12.238281 6.398438 12.199219 6.441406 12.160156 6.441406L11.480469 6.441406C11.441406 6.441406 11.398438 6.398438 11.398438 6.359375zM11.398438 4.480469"/>
</svg>

<svg xmlns="http://www.w3.org/2000/svg" width="32" height="32" viewBox="0 0 24 24">
    <path d="M13.398 8.8c.68 0 1.204-.519 1.204-1.198V3.199c0-.68-.524-1.199-1.204-1.199H4.602c-.68 0-1.204.52-1.204 1.2v4.402c0 .68.524 1.199 1.204 1.199zM4.2 7.603V3.199c0-.199.2-.398.403-.398h8.796c.243 0 .403.16.403.398v4.403c0 .238-.16.398-.403.398H4.602c-.243 0-.403-.16-.403-.398zm0 0M13.398 14A4.383 4.383 0 0 0 9 9.602a4.375 4.375 0 0 0-3.055 1.226c-.023.016-.047.031-.066.05a.751.751 0 0 0-.05.067A4.375 4.375 0 0 0 4.601 14c0 2.441 2 4.398 4.398 4.398A4.383 4.383 0 0 0 13.398 14zm-.796 0a3.6 3.6 0 0 1-.79 2.254l-5.066-5.067A3.6 3.6 0 0 1 9 10.399c2 0 3.602 1.602 3.602 3.602zm-7.204 0a3.6 3.6 0 0 1 .79-2.254l5.066 5.066a3.6 3.6 0 0 1-2.254.79C7 17.602 5.398 16 5.398 14zm0 0"/>
    <path d="M21.8 8.066V7.2c0-.238-.16-.398-.402-.398-.238 0-.398.16-.398.398v.867a1.17 1.17 0 0 0-.8 1.133V12c0 .238.16.398.402.398H21V22c0 .68-.52 1.2-1.2 1.2H8.603A1.18 1.18 0 0 1 7.398 22v-1.602h3.204v.801c0 .68.52 1.2 1.199 1.2h5.597c.68 0 1.204-.52 1.204-1.2v-8.8H19c.238 0 .398-.16.398-.399V9.2c0-.54-.324-.977-.796-1.134V7.2c0-.238-.16-.398-.403-.398-.238 0-.398.16-.398.398v.867A1.17 1.17 0 0 0 17 9.2V12c0 .238.16.398.398.398h.403V21.2c0 .242-.16.403-.403.403h-5.597c-.242 0-.403-.16-.403-.403v-.8h.563c2.559 0 4.64-1.958 4.64-4.399v-.078c-1-4.961-1.042-6.563-.242-11.48l.243-1.16v-.083C16.602 1.441 15.078 0 13.238 0H4.762c-1.84 0-3.364 1.441-3.364 3.2v.081l.243 1.16c.8 4.758.8 6.278-.243 11.48V16c0 2.441 2.082 4.398 4.641 4.398h.563V22c0 1.121.878 2 2 2H19.8c1.12 0 2-.879 2-2v-9.602h.398c.242 0 .403-.16.403-.398V9.2c0-.54-.329-.977-.801-1.134zm-4 1.133c0-.238.16-.398.4-.398.241 0 .402.16.402.398v2.403H17.8zM2.2 16.04c1-5.277 1.038-6.918.198-11.758L2.2 3.161C2.24 1.84 3.36.8 4.762.8h8.476c1.403 0 2.563 1.039 2.563 2.36l-.2 1.12c-.84 5.04-.8 6.719.2 11.758-.04 1.961-1.723 3.563-3.84 3.563H6.039c-2.078 0-3.8-1.602-3.84-3.563zm19.6-4.437H21V9.199c0-.238.16-.398.398-.398.243 0 .403.16.403.398zm0 0"/>
    <path d="M5.398 7.2H7c.238 0 .398-.16.398-.4 0-.241-.16-.402-.398-.402H5.8c0-.238.16-.398.4-.398.679 0 1.198-.52 1.198-1.2 0-.679-.52-1.198-1.199-1.198C5.52 3.602 5 4.122 5 4.8c0 .238.16.398.398.398.243 0 .403-.16.403-.398 0-.242.16-.403.398-.403.242 0 .403.16.403.403 0 .238-.16.398-.403.398C5.52 5.2 5 5.72 5 6.4V6.8c0 .238.16.398.398.398zm0 0M8.2 7.2h1.6c.24 0 .4-.16.4-.4 0-.241-.16-.402-.4-.402H8.603C8.602 6.16 8.762 6 9 6c.68 0 1.2-.52 1.2-1.2 0-.679-.52-1.198-1.2-1.198-.68 0-1.2.52-1.2 1.199 0 .238.16.398.4.398.241 0 .402-.16.402-.398 0-.242.16-.403.398-.403.238 0 .398.16.398.403 0 .238-.16.398-.398.398-.68 0-1.2.52-1.2 1.2V6.8c0 .238.16.398.4.398zm0 0M11.441 7.2h.68c.48 0 .879-.4.879-.84V4.48c0-.48-.398-.878-.84-.878h-.68c-.48 0-.878.398-.878.84V6.32c0 .48.398.88.84.88zm-.043-2.72c0-.039.043-.082.082-.082h.68c.04 0 .078.043.078.082v1.88c0 .038-.039.081-.078.081h-.68c-.039 0-.082-.043-.082-.082zm0 0"/>
</svg>
